public/twitter.svg

<svg width="41" height="32" viewBox="0 0 41 32" fill="none" xmlns="http://www.w3.org/2000/svg">
<path d="M36.4827 9.01028C36.4827 8.66061 36.4827 8.31248 36.4587 7.96589C38.0701 6.82204 39.4612 5.40589 40.5667 3.78353C39.064 4.43695 37.4697 4.86539 35.8374 5.05476C37.5559 4.04529 38.8429 2.45631 39.4574 0.585656C37.8411 1.52675 36.0727 2.19009 34.2288 2.54692C32.6719 0.922327 30.4975 0 28.2251 0C23.7036 0 19.9832 3.65085 19.9832 8.08749C19.9832 8.46411 20.5 9.91607 20.1966 9.91607C13.5668 9.91607 7.40565 6.51929 3.22661 1.47414C1.05345 5.14514 2.1779 9.90253 5.77587 12.2601C4.46565 12.222 3.18358 11.8751 2.03868 11.2488V11.3511C2.03978 15.1827 4.81721 18.5131 8.64462 19.2717C7.43246 19.5961 6.16035 19.6435 4.92672 19.4103C6.00271 22.6936 9.10552 24.9567 12.6195 25.0215C9.70431 27.2696 6.10116 28.4908 2.39346 28.4871C1.73831 28.4859 1.08379 28.447 0.43335 28.3705C4.19851 30.7415 8.58073 31.9995 13.0545 31.994C28.1992 32 36.4827 19.6876 36.4827 9.01028V9.01028Z" fill="white"/>
</svg>

<svg width="41" height="32" fill="none" xmlns="http://www.w3.org/2000/svg"><path d="M36.483 9.01c0-.35 0-.698-.024-1.044a16.585 16.585 0 0 0 4.108-4.182 16.683 16.683 0 0 1-4.73 1.27 8.138 8.138 0 0 0 3.62-4.468 16.697 16.697 0 0 1-5.228 1.96A8.32 8.32 0 0 0 28.225 0c-4.521 0-8.242 3.65-8.242 8.087 0 .377.517 1.83.214 1.83-6.63 0-12.791-3.398-16.97-8.443-2.174 3.671-1.05 8.429 2.549 10.786a8.293 8.293 0 0 1-3.737-1.011v.102c0 3.832 2.778 7.162 6.606 7.92a8.373 8.373 0 0 1-3.718.14c1.076 3.283 4.179 5.546 7.693 5.61a16.727 16.727 0 0 1-12.187 3.35 23.642 23.642 0 0 0 12.621 3.623C28.2 32 36.483 19.688 36.483 9.01Z" fill="#fff"/></svg>
